X:24
T:24 The Fall of Paris
C:Welch MS
I:abc2nwc
M:2/4
L:1/16
K:D
d2d3/2e/2 d2d3/2e/2|d2d3/2e/2 gfed|e2e3/2f/2 e2e3/2f/2|e2e3/2f/2 agfe|
f2f3/2g/2 f2f3/2g/2|f2f3/2g/2 bagf|e2e3/2f/2 e2e3/2f/2|efge cABc|d2d3/2e/2 d2d3/2e/2|
d2d3/2e/2 gfed|e2e3/2f/2 e2e3/2f/2|f2fd g3g|e2e3/2f/2 agfe|
f2fd g3g|f2fd g3g|fede f2e2|d2d2 d4|]


